source/images/icons.min/boundaries.svg

<svg width="124" height="124" viewBox="0 0 124 124" xmlns="http://www.w3.org/2000/svg"><title>boundaries</title><g fill-rule="evenodd"><path d="M61.997 6.314c-30.68 0-55.638 24.76-55.638 55.197 0 30.436 24.958 55.197 55.637 55.197 30.68 0 55.638-24.76 55.638-55.196 0-30.435-24.96-55.196-55.638-55.196zm0 116.702C27.812 123.016 0 95.426 0 61.51 0 27.598 27.812.007 61.997.007s61.997 27.59 61.997 61.505c0 33.915-27.812 61.506-61.997 61.506z"/><path d="M89.643 43.075l5.45 5.45v-19.14l-19.144-.004 5.45 5.453-19.403 19.403-19.403-19.403 5.45-5.452-19.142.004-.002 19.143 5.45-5.452 19.404 19.403L34.35 81.882l-5.45-5.45.002 19.14 19.143.004-5.45-5.452L61.996 70.72 81.4 90.125l-5.45 5.452 19.142-.003.003-19.143-5.452 5.452L70.24 62.48l19.403-19.405" fill="currentColor"/></g></svg>

<svg width="124" height="124" viewBox="0 0 124 124" xmlns="http://www.w3.org/2000/svg"><title>boundaries</title><g fill-rule="evenodd"><path d="M62 6.3C31.32 6.3 6.36 31.08 6.36 61.5c0 30.45 24.96 55.2 55.64 55.2s55.64-24.75 55.64-55.2c0-30.43-24.96-55.2-55.64-55.2zm0 116.72c-34.2 0-62-27.6-62-61.5C0 27.6 27.8 0 62 0c34.18 0 62 27.58 62 61.5 0 33.9-27.82 61.5-62 61.5z"/><path d="M89.64 43.08l5.45 5.45V29.38H75.94l5.45 5.45L62 54.23l-19.4-19.4 5.44-5.45H28.9v19.15l5.45-5.45 19.4 19.4-19.4 19.4-5.45-5.45v19.14h19.14l-5.45-5.45L62 70.72l19.4 19.4-5.45 5.46H95.1V76.42l-5.46 5.45-19.4-19.4 19.4-19.4" fill="currentColor"/></g></svg>
